src/icons/quote.inline.svg

<svg xmlns="http://www.w3.org/2000/svg" viewBox="0 0 26 29" fill="none" width="26" height="29">
  <path d="M7.63703 14.0635H1.75564C1.85596 6.75107 3.00967 5.54537 6.60873 2.88343C7.02256 2.57026 7.1605 1.9126 6.90969 1.38021C6.67143 0.863483 6.1322 0.69124 5.71837 1.00441C1.47975 4.1361 0 6.04644 0 15.1439V23.5839C0 26.2615 1.7431 28.4223 3.87495 28.4223H7.63703C9.84412 28.4223 11.512 26.3397 11.512 23.5839V18.8863C11.512 16.1461 9.84412 14.0635 7.63703 14.0635Z" fill="#A7B1BE" />
  <path d="M21.2038 14.0635H15.3224C15.4227 6.75107 16.5764 5.54537 20.1755 2.88343C20.5893 2.57026 20.7272 1.9126 20.4764 1.38021C20.2256 0.863483 19.6989 0.69124 19.2726 1.00441C15.034 4.1361 13.5542 6.04644 13.5542 15.1596V23.5995C13.5542 26.2771 15.2973 28.438 17.4291 28.438H21.1912C23.3983 28.438 25.0662 26.3554 25.0662 23.5995V18.902C25.0787 16.1461 23.4109 14.0635 21.2038 14.0635Z" fill="#A7B1BE" />
</svg>

<svg xmlns="http://www.w3.org/2000/svg" width="26" height="29" fill="none" viewBox="0 0 26 29" class="inline-block w-4 lg:w-4"><path fill="#42484f" d="M7.637 14.064H1.756c.1-7.313 1.254-8.519 4.853-11.18.414-.314.551-.971.3-1.504-.238-.517-.777-.689-1.19-.376C1.478 4.136 0 6.046 0 15.144v8.44c0 2.678 1.743 4.838 3.875 4.838h3.762c2.207 0 3.875-2.082 3.875-4.838v-4.698c0-2.74-1.668-4.822-3.875-4.822M21.204 14.064h-5.882c.1-7.313 1.254-8.519 4.854-11.18.413-.314.551-.971.3-1.504-.25-.517-.777-.689-1.203-.376-4.239 3.132-5.719 5.042-5.719 14.156v8.44c0 2.677 1.743 4.838 3.875 4.838h3.762c2.207 0 3.875-2.083 3.875-4.838v-4.698c.013-2.756-1.655-4.839-3.862-4.839"></path></svg>
